src/components/Icon/assets/repeat.svg

<svg width="24" height="24" viewBox="0 0 24 24" fill="none" xmlns="http://www.w3.org/2000/svg">
<path fill-rule="evenodd" clip-rule="evenodd" d="M15.3785 11.2427L13.9645 9.82869L15.7935 7.99969H4.00049V15.9997H2.00049V6.99969C2.00049 6.44769 2.44749 5.99969 3.00049 5.99969H15.7935L13.9645 4.17169L15.3785 2.75769L18.5605 5.93969C19.1455 6.52469 19.1455 7.47569 18.5605 8.06069L15.3785 11.2427ZM20.0002 16.0001V8.00009H22.0002V17.0001C22.0002 17.5521 21.5522 18.0001 21.0002 18.0001H8.20718L10.0352 19.8291L8.62118 21.2431L5.43918 18.0611C4.85418 17.4761 4.85418 16.5241 5.43918 15.9391L8.62118 12.7571L10.0352 14.1711L8.20718 16.0001H20.0002Z" fill="#65676A"/>
</svg>

<svg xmlns="http://www.w3.org/2000/svg" width="24" height="24" viewBox="0 0 24 24">
    <path fill="#65676A" fill-rule="evenodd" d="M22 8v9c0 .552-.448 1-1 1H8.207l1.828 1.83-1.414 1.413-3.182-3.182c-.585-.585-.585-1.537 0-2.122l3.182-3.182 1.414 1.414-1.828 1.83H20V8h2zM15.38 2.758L18.56 5.94c.584.585.584 1.536 0 2.12l-3.182 3.183-1.415-1.414 1.83-1.83H4v8H2V7c0-.551.446-1 1-1h12.793l-1.83-1.827 1.415-1.414z"/>
</svg>
